images/farms/xtz-bnb.svg

<svg width="186" height="171" viewBox="0 0 186 171" fill="none" xmlns="http://www.w3.org/2000/svg">
<path d="M67.045 119.028C63.8667 131.172 82.0449 146.449 107.647 153.149C133.25 159.849 156.581 155.436 159.759 143.291C162.937 131.146 144.759 115.87 119.157 109.169C93.5546 102.469 70.2233 106.883 67.045 119.028Z" fill="#606063"/>
<path d="M155.924 149.273L171.346 132.988L61.9922 104.369L67.7128 126.187L155.924 149.273Z" fill="#606063"/>
<path d="M68.9337 108.293L27.0725 97.338C25.258 96.8632 23.4126 97.9924 23.0096 99.8242L22.5414 101.953C21.6084 106.194 24.1195 110.433 28.2875 111.653L70.0994 123.892L68.9337 108.293Z" fill="#606063"/>
<path d="M62.2026 98.7096C58.5089 112.824 80.5267 130.811 111.381 138.886C142.235 146.96 170.241 142.064 173.935 127.95C177.629 113.836 155.611 95.8488 124.757 87.7742C93.9028 79.6996 65.8963 84.5955 62.2026 98.7096Z" fill="url(#paint0_linear)"/>
<path fill-rule="evenodd" clip-rule="evenodd" d="M146.673 123.286C153.771 128.506 157.919 134.152 158.538 139.157L161.516 138.789C160.744 132.551 155.779 126.258 148.45 120.869C141.061 115.434 131.011 110.721 119.537 107.718C108.063 104.716 96.9927 103.901 87.888 105.019C78.8593 106.128 71.4479 109.182 67.7196 114.242L70.1348 116.021C73.1263 111.961 79.5082 109.071 88.2536 107.997C96.9231 106.933 107.608 107.698 118.777 110.621C129.946 113.544 139.636 118.111 146.673 123.286Z" fill="#606063"/>
<path fill-rule="evenodd" clip-rule="evenodd" d="M75.7343 118.739C67.0136 111.615 63.7365 104.698 65.1049 99.4692C66.4733 94.2403 72.7186 89.8155 83.8112 87.8763C94.6178 85.9872 108.889 86.7226 123.997 90.6764C139.105 94.6302 151.908 100.98 160.403 107.921C169.124 115.045 172.401 121.962 171.033 127.191C169.664 132.42 163.419 136.844 152.326 138.784C141.52 140.673 127.248 139.937 112.14 135.984C97.0323 132.03 84.2301 125.68 75.7343 118.739ZM111.381 138.886C80.5267 130.811 58.5089 112.824 62.2026 98.7096C65.8963 84.5955 93.9028 79.6996 124.757 87.7742C155.611 95.8488 177.629 113.836 173.935 127.95C170.241 142.064 142.235 146.96 111.381 138.886Z" fill="#979797"/>
<path fill-rule="evenodd" clip-rule="evenodd" d="M64.1673 124.049L59.2305 104.926L62.1352 104.176L67.0721 123.299L64.1673 124.049Z" fill="url(#paint1_linear)"/>
<path fill-rule="evenodd" clip-rule="evenodd" d="M62.4691 106.189C62.4241 106.041 62.3812 105.893 62.3406 105.746C62.2656 105.473 62.1983 105.2 62.1386 104.929L61.997 104.389C61.9948 104.38 62.0025 104.372 62.0109 104.375C62.019 104.377 62.0266 104.37 62.0251 104.362C62.0236 104.353 62.0222 104.345 62.0207 104.337C61.9732 104.072 61.9333 103.807 61.9009 103.543C61.8931 103.479 61.8857 103.416 61.8788 103.352C61.8065 102.689 61.7824 102.031 61.8078 101.378C61.8079 101.378 61.8079 101.378 61.8079 101.377C61.8432 100.475 61.9734 99.5849 62.2025 98.7095C65.8962 84.5954 93.9027 79.6994 124.757 87.774C155.611 95.8486 177.629 113.836 173.935 127.95C173.706 128.826 173.383 129.666 172.972 130.469C172.972 130.469 172.972 130.47 172.972 130.47C172.528 131.338 171.981 132.163 171.337 132.945C171.332 132.951 171.326 132.958 171.321 132.964C171.319 132.967 171.318 132.969 171.318 132.972C171.318 132.977 171.322 132.982 171.327 132.983C171.332 132.984 171.335 132.989 171.336 132.993C171.336 132.996 171.335 133 171.333 133.002L170.725 133.644C170.655 133.72 170.584 133.795 170.511 133.87L169.275 135.175L169.273 135.177L157.793 147.299C150.986 156.33 130.197 159.051 107.647 153.149C85.3446 147.312 68.6757 134.967 66.8505 123.854C66.7571 123.285 66.3667 122.8 65.8135 122.639L29.1271 111.91C24.9834 110.698 22.4722 106.499 23.3648 102.275L23.8239 100.103C24.2137 98.2581 26.0655 97.1133 27.8898 97.589L62.1386 106.52C62.3391 106.573 62.5217 106.39 62.4691 106.189ZM58.8119 102.553C58.7482 101.009 58.9029 99.4681 59.3002 97.9499C61.6255 89.0648 71.2303 83.9845 82.7779 81.9658C94.6114 79.8971 109.77 80.751 125.516 84.8718C141.262 88.9926 154.896 95.6738 164.199 103.274C173.277 110.691 179.162 119.825 176.837 128.71C176.28 130.839 175.285 132.774 173.936 134.499C173.821 134.697 173.679 134.887 173.511 135.065L172.923 135.686C172.92 135.689 172.916 135.693 172.913 135.697C172.836 135.779 172.759 135.861 172.68 135.943C172.677 135.946 172.673 135.95 172.67 135.953L160.082 149.246C155.911 154.652 148.056 157.706 138.984 158.802C129.684 159.926 118.467 159.082 106.888 156.051C95.4351 153.054 85.3397 148.366 77.8095 142.91C70.73 137.78 65.4882 131.648 64.0667 125.253L28.285 114.789C22.6362 113.137 19.2128 107.413 20.4296 101.655L20.8887 99.4823C21.6325 95.9628 25.166 93.7783 28.6468 94.6861L58.8119 102.553Z" fill="url(#paint2_linear)"/>
<circle cx="76" cy="29" r="29" fill="#F0B90B"/>
<path d="M65.1846 28.9998L60.7476 33.4676L56.2798 28.9998L60.7476 24.532L65.1846 28.9998ZM75.9998 18.1846L83.6413 25.8261L88.1091 21.3583L80.4676 13.7476L75.9998 9.27979L71.532 13.7476L63.9213 21.3583L68.3891 25.8261L75.9998 18.1846ZM91.252 24.532L86.815 28.9998L91.2828 33.4676L95.7198 28.9998L91.252 24.532ZM75.9998 39.815L68.3583 32.1735L63.9213 36.6413L71.5628 44.2828L75.9998 48.7198L80.4676 44.252L88.1091 36.6105L83.6413 32.1735L75.9998 39.815ZM75.9998 33.4676L80.4676 28.9998L75.9998 24.532L71.532 28.9998L75.9998 33.4676Z" fill="#FFFDFA"/>
<g style="mix-blend-mode:multiply" opacity="0.1">
<circle cx="76" cy="29" r="27.5" stroke="#191326" stroke-width="3"/>
</g>
<path d="M125.5 116C149.509 116 169 96.5112 169 72.5057C169 48.5002 149.52 29 125.5 29C101.48 29 82 48.4888 82 72.4943C82 96.4998 101.491 116 125.5 116Z" fill="#075AF6"/>
<path d="M130.69 101.5C126.629 101.5 123.669 100.54 121.811 98.5595C119.952 96.5788 119.053 94.5062 119.053 92.2192C119.053 91.4126 119.205 90.6979 119.558 90.1364C119.861 89.5748 120.306 89.1256 120.861 88.8193C121.417 88.513 122.114 88.3088 122.922 88.3088C123.73 88.3088 124.427 88.462 124.983 88.8193C125.538 89.1256 125.983 89.5748 126.286 90.1364C126.589 90.6979 126.791 91.4024 126.791 92.2192C126.791 93.23 126.538 94.0468 126.084 94.6492C125.629 95.2617 125.033 95.711 124.377 95.9152C124.932 96.6707 125.831 97.2323 127.033 97.5896C128.235 97.9469 129.437 98.1001 130.649 98.1001C132.356 98.1001 133.862 97.6407 135.215 96.732C136.569 95.8233 137.569 94.4552 138.225 92.6786C138.882 90.9021 139.175 88.8806 139.175 86.5935C139.175 84.1125 138.821 82.0297 138.124 80.3042C137.417 78.5277 136.417 77.2107 135.064 76.4041C133.71 75.5464 132.255 75.138 130.649 75.138C129.599 75.138 128.346 75.5975 126.791 76.4551L123.962 77.8232V76.4041L136.75 59.1698H119.053V77.0677C119.053 78.5379 119.356 79.7529 120.003 80.7229C120.659 81.6826 121.659 82.142 122.962 82.142C124.013 82.142 124.973 81.7847 125.922 81.0802C126.872 80.3655 127.68 79.5079 128.377 78.5482C128.478 78.344 128.579 78.1908 128.68 78.1398C128.831 78.0377 128.932 77.9866 129.084 77.9866C129.336 77.9866 129.589 78.0887 129.932 78.344C130.235 78.7013 130.387 79.0995 130.387 79.5589C130.387 79.7631 130.286 80.0694 130.235 80.4676C129.528 82.142 128.528 83.4081 127.225 84.2657C125.922 85.1233 124.518 85.5828 122.962 85.5828C119.104 85.5828 116.488 84.8272 114.982 83.306C113.528 81.7847 112.78 79.7019 112.78 77.1188V59.1698H103.75V55.8209H112.831V48.2145L110.77 46.1317V44.4062H116.791L119.043 45.5702V55.7699L142.468 55.7188L144.771 58.0467L130.437 72.606C131.286 72.2486 132.195 72.0444 133.144 71.9423C134.7 71.9423 136.458 72.4528 138.357 73.4636C140.316 74.4233 141.821 75.7915 142.872 77.5169C143.922 79.2424 144.629 80.8658 144.932 82.4381C145.235 84.0104 145.438 85.3786 145.438 86.6446C145.438 89.4319 144.831 92.015 143.68 94.4041C142.528 96.783 140.771 98.6106 138.367 99.7745C136.003 100.938 133.447 101.5 130.69 101.5Z" fill="#FFFDFA"/>
<g style="mix-blend-mode:multiply" opacity="0.2">
<circle cx="125.5" cy="72.5" r="42.0815" stroke="#191326" stroke-width="2.83696"/>
</g>
<defs>
<linearGradient id="paint0_linear" x1="124.757" y1="87.7742" x2="111.381" y2="138.886" gradientUnits="userSpaceOnUse">
<stop stop-color="#404042"/>
<stop offset="1" stop-color="#48484B"/>
</linearGradient>
<linearGradient id="paint1_linear" x1="65.5673" y1="105.096" x2="60.7353" y2="123.129" gradientUnits="userSpaceOnUse">
<stop stop-color="#404042"/>
<stop offset="1" stop-color="#48484B"/>
</linearGradient>
<linearGradient id="paint2_linear" x1="92.4948" y1="80.1687" x2="108.09" y2="164.62" gradientUnits="userSpaceOnUse">
<stop stop-color="#404042"/>
<stop offset="1" stop-color="#48484B"/>
</linearGradient>
</defs>
</svg>

<svg xmlns="http://www.w3.org/2000/svg" xmlns:v="https://vecta.io/nano" width="186" height="171" fill="none"><g fill="#606063"><path d="M67.045 119.028c-3.178 12.144 15 27.421 40.602 34.121s48.934 2.287 52.112-9.858-15-27.421-40.602-34.122-48.934-2.286-52.112 9.859z"/><path d="M155.924 149.273l15.422-16.285-109.354-28.619 5.721 21.818 88.211 23.086z"/><path d="M68.934 108.293L27.073 97.338c-1.815-.475-3.66.654-4.063 2.486l-.468 2.129a8.26 8.26 0 0 0 5.746 9.7l41.812 12.239-1.166-15.599z"/></g><path fill="url(#A)" d="M62.203 98.71c-3.694 14.114 18.324 32.101 49.178 40.176s58.86 3.178 62.554-10.936-18.324-32.101-49.178-40.176-58.861-3.179-62.554 10.935z"/><g fill-rule="evenodd"><path fill="#606063" d="M146.673 123.286c7.098 5.22 11.246 10.866 11.865 15.871l2.978-.368c-.772-6.238-5.737-12.531-13.066-17.92-7.389-5.435-17.439-10.148-28.913-13.151s-22.544-3.817-31.649-2.699c-9.029 1.109-16.44 4.163-20.168 9.223l2.415 1.779c2.992-4.06 9.373-6.95 18.119-8.024 8.67-1.064 19.354-.299 30.523 2.624s20.859 7.49 27.896 12.665z"/><path fill="#979797" d="M75.734 118.739c-8.721-7.124-11.998-14.041-10.629-19.27s7.614-9.654 18.706-11.593c10.807-1.889 25.078-1.154 40.186 2.8s27.911 10.304 36.406 17.245c8.721 7.124 11.998 14.041 10.63 19.27s-7.614 9.653-18.707 11.593c-10.806 1.889-25.078 1.153-40.186-2.8s-27.91-10.304-36.406-17.245zm35.647 20.147c-30.854-8.075-52.872-26.062-49.178-40.176s31.7-19.01 62.554-10.935 52.872 26.062 49.178 40.176-31.7 19.01-62.554 10.936z"/><path fill="url(#B)" d="M64.167 124.049l-4.937-19.123 2.905-.75 4.937 19.123-2.905.75z"/><path fill="url(#C)" d="M62.469 106.189l-.128-.443-.202-.817-.142-.54c.022-.012.03-.019.028-.027l-.004-.025-.12-.794-.022-.191c-.072-.663-.096-1.321-.071-1.974.035-.903.166-1.793.395-2.668 3.694-14.114 31.7-19.01 62.555-10.936s52.872 26.062 49.178 40.176a12.4 12.4 0 0 1-.963 2.519 13.7 13.7 0 0 1-1.635 2.476l-.016.019c.011.02.014.025.015.029l-.611.651-12.932 13.655c-6.807 9.031-27.596 11.752-50.146 5.85-22.302-5.837-38.971-18.182-40.797-29.295-.093-.569-.484-1.054-1.037-1.215L29.127 111.91a8.26 8.26 0 0 1-5.762-9.635l.459-2.172c.39-1.845 2.242-2.99 4.066-2.514l34.249 8.931a.27.27 0 0 0 .331-.331zm-3.657-3.636c-.064-1.544.091-3.085.488-4.603 2.325-8.885 11.93-13.965 23.478-15.984 11.834-2.069 26.992-1.215 42.738 2.906s29.38 10.802 38.683 18.402c9.078 7.417 14.963 16.551 12.638 25.436-.557 2.129-1.552 4.064-2.901 5.789a3.08 3.08 0 0 1-.425.566l-13.429 14.181c-4.171 5.406-12.026 8.46-21.098 9.556-9.3 1.124-20.517.28-32.096-2.751-11.453-2.997-21.548-7.685-29.079-13.141-7.079-5.13-12.321-11.262-13.743-17.657l-35.782-10.464a11.26 11.26 0 0 1-7.855-13.134l.459-2.173c.744-3.519 4.277-5.704 7.758-4.796l30.165 7.867z"/></g><circle cx="76" cy="29" r="29" fill="#f0b90b"/><path fill="#fffdfa" d="M65.185 29l-4.437 4.468L56.28 29l4.468-4.468L65.185 29zM76 18.185l7.642 7.642 4.468-4.468-7.641-7.611L76 9.28 63.921 21.358l4.468 4.468L76 18.185zm15.252 6.347L86.815 29l4.468 4.468L95.72 29l-4.468-4.468zM76 39.815l-7.641-7.642-4.437 4.468L76 48.72l12.109-12.109-4.468-4.437L76 39.815zm0-6.347L80.468 29 76 24.532 71.532 29 76 33.468z"/><circle cx="76" cy="29" r="27.5" stroke="#191326" stroke-width="3" opacity=".1" style="mix-blend-mode:multiply"/><path fill="#075af6" d="M125.5 116c24.009 0 43.5-19.489 43.5-43.494S149.52 29 125.5 29 82 48.489 82 72.494 101.491 116 125.5 116z"/><path fill="#fffdfa" d="M130.69 101.5c-4.061 0-7.021-.96-8.879-2.94s-2.758-4.053-2.758-6.34c0-.807.152-1.521.505-2.083.303-.562.748-1.011 1.303-1.317s1.253-.51 2.061-.51 1.505.153 2.061.51c.555.306 1 .755 1.303 1.317s.505 1.266.505 2.083c0 1.011-.253 1.828-.707 2.43-.455.613-1.051 1.062-1.707 1.266.555.755 1.454 1.317 2.656 1.674a12.58 12.58 0 0 0 3.616.51 7.97 7.97 0 0 0 4.566-1.368c1.354-.909 2.354-2.277 3.01-4.053s.95-3.798.95-6.085c0-2.481-.354-4.564-1.051-6.289-.707-1.776-1.707-3.093-3.06-3.9-1.354-.858-2.809-1.266-4.415-1.266-1.05 0-2.303.459-3.858 1.317l-2.829 1.368v-1.419L136.75 59.17h-17.697v17.898c0 1.47.303 2.685.95 3.655.656.96 1.656 1.419 2.959 1.419 1.051 0 2.011-.357 2.96-1.062.95-.715 1.758-1.572 2.455-2.532.101-.204.202-.357.303-.408.151-.102.252-.153.404-.153.252 0 .505.102.848.357.303.357.455.756.455 1.215 0 .204-.101.511-.152.909-.707 1.674-1.707 2.941-3.01 3.798s-2.707 1.317-4.263 1.317c-3.858 0-6.474-.756-7.98-2.277-1.454-1.521-2.202-3.604-2.202-6.187V59.17h-9.03v-3.349h9.081v-7.606l-2.061-2.083v-1.726h6.021l2.252 1.164v10.2l23.425-.051 2.303 2.328-14.334 14.559c.849-.357 1.758-.562 2.707-.664 1.556 0 3.314.51 5.213 1.521 1.959.96 3.464 2.328 4.515 4.053s1.757 3.349 2.06 4.921.506 2.941.506 4.206c0 2.787-.607 5.37-1.758 7.76-1.152 2.379-2.909 4.207-5.313 5.37-2.364 1.163-4.92 1.725-7.677 1.725z"/><circle cx="125.5" cy="72.5" r="42.082" stroke="#191326" stroke-width="2.837" opacity=".2" style="mix-blend-mode:multiply"/><defs><linearGradient id="A" x1="124.757" x2="111.381" y1="87.774" y2="138.886" gradientUnits="userSpaceOnUse"><stop stop-color="#404042"/><stop offset="1" stop-color="#48484b"/></linearGradient><linearGradient id="B" x1="65.567" x2="60.735" y1="105.096" y2="123.129" gradientUnits="userSpaceOnUse"><stop stop-color="#404042"/><stop offset="1" stop-color="#48484b"/></linearGradient><linearGradient id="C" x1="92.495" x2="108.09" y1="80.169" y2="164.62" gradientUnits="userSpaceOnUse"><stop stop-color="#404042"/><stop offset="1" stop-color="#48484b"/></linearGradient></defs></svg>
